assets/security-grey/SecurityGrey4.svg

<svg xmlns="http://www.w3.org/2000/svg" data-name="Layer 3" viewBox="0 0 128 128"><path d="M48.377 106.677h31.246A10.55 10.55 0 0090.16 96.139V31.861a10.55 10.55 0 00-10.537-10.538H48.377A10.55 10.55 0 0037.84 31.861v64.278a10.55 10.55 0 0010.537 10.538zm38.563-18.4H41.06V39.91h45.879zm-7.316 15.177H48.377a7.325 7.325 0 01-7.316-7.317V91.5h45.878v4.639a7.325 7.325 0 01-7.316 7.317zm-31.247-78.91h31.246a7.325 7.325 0 017.316 7.317v4.828H41.06v-4.828a7.325 7.325 0 017.317-7.317z"/><path d="M56.3 81.88h15.4a5.373 5.373 0 005.366-5.368V60.736a1.61 1.61 0 00-1.61-1.61h-2.989v-4.871a8.476 8.476 0 00-16.938 0v4.871h-2.986a1.61 1.61 0 00-1.61 1.61v15.776A5.374 5.374 0 0056.3 81.88zm2.45-27.625a5.259 5.259 0 0110.5 0v4.871h-10.5zm-4.6 8.092h19.695v14.165a2.149 2.149 0 01-2.145 2.147H56.3a2.149 2.149 0 01-2.147-2.147z"/><path d="M62.389 72.558v2.828a1.61 1.61 0 003.221 0v-2.828a4.616 4.616 0 10-3.221 0zM64 66.854a1.395 1.395 0 11-1.4 1.4 1.4 1.4 0 011.4-1.4z"/><circle cx="64" cy="97.478" r="4.463"/></svg>

<svg id="Layer_3" data-name="Layer 3" xmlns="http://www.w3.org/2000/svg" viewBox="0 0 128 128"><title>Artboard 100</title><path d="M48.377,106.677H79.623A10.55,10.55,0,0,0,90.16,96.139V31.861A10.55,10.55,0,0,0,79.623,21.323H48.377A10.55,10.55,0,0,0,37.84,31.861V96.139A10.55,10.55,0,0,0,48.377,106.677Zm38.563-18.4H41.06V39.91H86.939Zm-7.316,15.177H48.377a7.325,7.325,0,0,1-7.316-7.317V91.5H86.939v4.639A7.325,7.325,0,0,1,79.623,103.456ZM48.377,24.544H79.623a7.325,7.325,0,0,1,7.316,7.317v4.828H41.06V31.861A7.325,7.325,0,0,1,48.377,24.544Z" style="fill:#231f20"/><path d="M56.3,81.88H71.7a5.373,5.373,0,0,0,5.366-5.368V60.736a1.61,1.61,0,0,0-1.61-1.61H72.467V54.255a8.476,8.476,0,0,0-16.938,0v4.871H52.543a1.61,1.61,0,0,0-1.61,1.61V76.512A5.374,5.374,0,0,0,56.3,81.88Zm2.45-27.625a5.259,5.259,0,0,1,10.5,0v4.871H58.75Zm-4.6,8.092H73.845V76.512A2.149,2.149,0,0,1,71.7,78.659H56.3a2.149,2.149,0,0,1-2.147-2.147Z" style="fill:#231f20"/><path d="M62.389,72.558v2.828a1.61,1.61,0,0,0,3.221,0V72.558a4.616,4.616,0,1,0-3.221,0ZM64,66.854a1.395,1.395,0,1,1-1.4,1.4A1.4,1.4,0,0,1,64,66.854Z" style="fill:#231f20"/><circle cx="64" cy="97.478" r="4.463" style="fill:#231f20"/></svg>
